X:1736
T:Earl of Angus and Arran
O:england
M:4/4
L:1/8
C:Wm. Marshall
R:Strathspey
K:Eb
B,|"Eb"+G,E<++G,E+"Bb" +D2B2+"Eb" G>FE>G|"Fm"A<CF>E "Bb"D<B,C>D|"Eb"E<E
"Bb"B2 "Eb" G>FE>G|"Ab"A<C "Bb"F>D "Eb"E2 2:||B|"Eb"G<BE>B G<BE>d|"Eb"e
<EG>E "Bb"D<FF>A|"Eb"G<BE>B "Cm"G<BE>g|"Fm"f>ed>c "Bb"B2 BG|"Ab"A<c F>A
"Eb"G<B E>G|"Ab"F>GA>G "Bb"FEDB,|"Eb"E<G "Bb"F<A "Cm"G<B "Ab"A>c|"Bb"B<e
d
>f "Eb"e2 e||


